X: 157
T: Chicken Dance "Klezmerized"
M: 2/4
L: 1/8
K: Cm
|: G/G/ A/A/ E/E/ || "Cm"G G/G/ A/A/ E/E/ | G G/G/ A/A/ c/c/ | "G7"=B z z2 | z F/F/ G/G/ D/D/ |
| "G7"F F/F/ G/G/ D/D/ |1 F F/F/ G/G/ =B/B/ | "Cm"A z z2 | z :|2 "G7"F (GA=B) | "Cm"c4- | c || G^F=F |
|| "Cm"E3 G | e3 d | d2 c2- | c G^F=F | E3 G | d3 c | "G7"=B4- | =B GG^F |
| F3 G | d3 c | c2 =B2- | =B ddc | c2 =B2- | =B Bcd | "Cm"c4- | c :|
